src/assets/icons/cars/little_car.svg

<svg width="48" height="48" viewBox="0 0 48 48" fill="none" xmlns="http://www.w3.org/2000/svg">
<g id="Icons / Vertical Cars / Car bodytype little">
<path id="Fill 1" fill-rule="evenodd" clip-rule="evenodd" d="M36.1378 27.9302C36.1378 28.5202 35.6578 29.0002 35.0678 29.0002H33.5868C33.3478 27.5842 32.1208 26.5002 30.6378 26.5002C29.1548 26.5002 27.9278 27.5842 27.6888 29.0002H18.0868C17.8478 27.5842 16.6208 26.5002 15.1378 26.5002C13.6548 26.5002 12.4278 27.5842 12.1888 29.0002H11.1388C10.8858 28.9792 10.3068 28.1832 10.1008 27.6592L10.0898 27.6242C10.0828 27.6022 9.4238 25.4532 11.7198 23.8132C12.6908 23.1192 14.1688 22.5312 15.7358 21.9132C15.8598 21.9672 15.9948 22.0002 16.1378 22.0002H22.1378C22.6898 22.0002 23.1378 21.5522 23.1378 21.0002C23.1378 20.4482 22.6898 20.0002 22.1378 20.0002H20.1028C21.0138 19.5222 21.9088 18.9782 22.7478 18.3322C24.4778 17.0002 26.2558 17.0002 28.1378 17.0002H29.1378C30.7028 17.0002 31.5088 17.6982 33.4148 19.6912C34.7918 21.1312 35.5538 22.8952 35.9008 24.0002H34.1378C33.5858 24.0002 33.1378 24.4482 33.1378 25.0002C33.1378 25.5522 33.5858 26.0002 34.1378 26.0002H36.1378V27.9302ZM30.6378 30.5002C30.0868 30.5002 29.6378 30.0512 29.6378 29.5002C29.6378 28.9492 30.0868 28.5002 30.6378 28.5002C31.1888 28.5002 31.6378 28.9492 31.6378 29.5002C31.6378 30.0512 31.1888 30.5002 30.6378 30.5002ZM15.1378 30.5002C14.5868 30.5002 14.1378 30.0512 14.1378 29.5002C14.1378 28.9492 14.5868 28.5002 15.1378 28.5002C15.6888 28.5002 16.1378 28.9492 16.1378 29.5002C16.1378 30.0512 15.6888 30.5002 15.1378 30.5002ZM34.8608 18.3092C32.8988 16.2572 31.5738 15.0002 29.1378 15.0002H28.1378C26.1028 15.0002 23.7978 15.0002 21.5278 16.7472C19.5858 18.2422 17.1868 19.1892 15.0718 20.0252C13.3598 20.7012 11.7428 21.3392 10.5558 22.1862C7.0858 24.6662 8.1388 28.0922 8.1858 28.2362L8.2008 28.2322C8.4608 29.0632 9.5158 31.0002 11.1378 31.0002H12.5548C13.0758 31.8922 14.0328 32.5002 15.1378 32.5002C16.2428 32.5002 17.1998 31.8922 17.7208 31.0002H28.0548C28.5758 31.8922 29.5328 32.5002 30.6378 32.5002C31.7428 32.5002 32.6998 31.8922 33.2208 31.0002H35.0678C36.7608 31.0002 38.1378 29.6232 38.1378 27.9302V25.0002C38.1378 24.0392 37.1948 20.7502 34.8608 18.3092Z" fill="#253238"/>
</g>
</svg>

<svg width="48" height="48" viewBox="0 0 48 48" fill="none" xmlns="http://www.w3.org/2000/svg"><path fill-rule="evenodd" clip-rule="evenodd" d="M36.138 27.93c0 .59-.48 1.07-1.07 1.07h-1.481a2.997 2.997 0 00-2.95-2.5A2.997 2.997 0 0027.69 29h-9.602a2.997 2.997 0 00-2.95-2.5A2.997 2.997 0 0012.19 29h-1.05c-.253-.02-.832-.817-1.038-1.34l-.011-.036c-.007-.022-.666-2.17 1.63-3.81.97-.695 2.449-1.283 4.016-1.9.124.053.259.086.402.086h6a1 1 0 000-2h-2.035a18.09 18.09 0 002.645-1.668C24.478 17 26.256 17 28.138 17h1c1.565 0 2.37.698 4.277 2.691 1.377 1.44 2.139 3.204 2.486 4.31h-1.763a1 1 0 000 2h2v1.93zm-5.5 2.57c-.551 0-1-.449-1-1 0-.55.449-1 1-1 .55 0 1 .45 1 1 0 .551-.45 1-1 1zm-15.5 0c-.551 0-1-.449-1-1 0-.55.449-1 1-1 .55 0 1 .45 1 1 0 .551-.45 1-1 1zM34.86 18.31C32.899 16.256 31.574 15 29.138 15h-1c-2.035 0-4.34 0-6.61 1.747-1.942 1.495-4.341 2.442-6.456 3.278-1.712.676-3.33 1.314-4.516 2.161-3.47 2.48-2.417 5.906-2.37 6.05l.015-.004C8.46 29.063 9.516 31 11.138 31h1.417a2.993 2.993 0 002.583 1.5A2.993 2.993 0 0017.72 31h10.334a2.993 2.993 0 002.583 1.5A2.993 2.993 0 0033.22 31h1.847a3.073 3.073 0 003.07-3.07V25c0-.96-.943-4.25-3.277-6.69z" fill="#253238"/></svg>
